src/components/Icon/assets/weather-thunder.svg

<svg width="24" height="24" viewBox="0 0 24 24" fill="none" xmlns="http://www.w3.org/2000/svg">
<path fill-rule="evenodd" clip-rule="evenodd" d="M22.9999 10.927C22.9999 14.279 20.2729 17.007 16.9209 17.007V15.007C19.1699 15.007 20.9999 13.177 20.9999 10.927C20.9999 8.67701 19.1699 6.84701 16.9209 6.84701H15.7219L15.4329 6.35301C14.7129 5.12301 13.4479 4.39001 12.0489 4.39001C10.1169 4.39001 8.44991 5.84101 8.17191 7.76501L8.04891 8.62201H6.01991C4.35491 8.62201 2.99991 9.97701 2.99991 11.642V11.986C2.99991 13.652 4.35491 15.007 6.01991 15.007H8.00391V17.007H6.01991C3.25191 17.007 0.999908 14.755 0.999908 11.986V11.642C0.999908 8.87401 3.25191 6.62201 6.01991 6.62201H6.38291C7.12591 4.15701 9.42491 2.39001 12.0489 2.39001C13.9379 2.39001 15.7229 3.31901 16.8349 4.84701H16.9209C20.2729 4.84701 22.9999 7.57401 22.9999 10.927ZM13.5454 15.9923L16.0874 16.5803C16.3124 16.6333 16.3924 16.9113 16.2294 17.0753L10.1534 23.1683C9.93842 23.3843 9.57742 23.1703 9.66342 22.8773L10.8884 18.7093L8.34642 18.1213C8.12142 18.0683 8.04142 17.7903 8.20442 17.6263L14.2804 11.5333C14.4954 11.3173 14.8574 11.5313 14.7714 11.8243L13.5454 15.9923Z" fill="#65676A"/>
</svg>

<svg xmlns="http://www.w3.org/2000/svg" width="24" height="24" viewBox="0 0 24 24">
    <path fill="#65676A" fill-rule="evenodd" d="M14.28 11.533c.215-.216.577-.002.491.291l-1.226 4.168 2.542.588c.225.053.305.331.142.495l-6.076 6.093c-.215.216-.576.002-.49-.29l1.225-4.169-2.542-.588c-.225-.053-.305-.33-.142-.495zM12.05 2.39c1.889 0 3.674.929 4.786 2.457h.086c3.352 0 6.079 2.727 6.079 6.08 0 3.352-2.727 6.08-6.08 6.08v-2c2.25 0 4.08-1.83 4.08-4.08s-1.83-4.08-4.08-4.08h-1.198l-.29-.494c-.72-1.23-1.984-1.963-3.383-1.963-1.932 0-3.6 1.451-3.877 3.375l-.123.857h-2.03C4.356 8.622 3 9.977 3 11.642v.344c0 1.666 1.356 3.021 3.02 3.021h1.985v2H6.02c-2.768 0-5.02-2.252-5.02-5.021v-.344c0-2.768 2.252-5.02 5.02-5.02h.363c.743-2.465 3.042-4.232 5.666-4.232z"/>
</svg>
